src/resources/assets/mail-unread.svg

<svg xmlns="http://www.w3.org/2000/svg" width="16" height="16"><path d="M 3 3 L 10.171875 3 C 10.082031 3.25 10.027344 3.515625 10.007812 3.789062 L 10 4 L 3 4 C 2.449219 4 2 4.449219 2 5 L 2 5.191406 L 7.5 7.941406 L 10.96875 6.207031 C 11.257812 6.472656 11.597656 6.683594 11.976562 6.820312 L 7.722656 8.945312 C 7.609375 9.003906 7.484375 9.015625 7.363281 8.980469 L 7.277344 8.945312 L 2 6.308594 L 2 11 C 2 11.550781 2.449219 12 3 12 L 12 12 C 12.550781 12 13 11.550781 13 11 L 13 7 C 13.351562 7 13.6875 6.941406 14 6.828125 L 14 11 C 14 12.105469 13.105469 13 12 13 L 3 13 C 1.894531 13 1 12.105469 1 11 L 1 5 C 1 3.894531 1.894531 3 3 3 Z M 13 6 C 12.925781 6 12.847656 5.996094 12.777344 5.988281 L 12.605469 5.960938 L 12.539062 5.945312 L 12.445312 5.921875 C 12.335938 5.890625 12.230469 5.851562 12.128906 5.800781 L 11.960938 5.710938 C 11.429688 5.386719 11.058594 4.820312 11.007812 4.164062 L 11 4 L 11.003906 3.910156 L 11.011719 3.789062 L 11.03125 3.636719 L 11.074219 3.453125 L 11.125 3.296875 L 11.1875 3.148438 L 11.269531 3 C 11.613281 2.402344 12.261719 2 13 2 C 14.105469 2 15 2.894531 15 4 C 15 4.683594 14.65625 5.285156 14.136719 5.644531 L 13.992188 5.738281 L 13.847656 5.8125 L 13.660156 5.890625 L 13.601562 5.910156 L 13.445312 5.949219 L 13.332031 5.972656 L 13.171875 5.992188 C 13.117188 5.996094 13.058594 6 13 6 Z M 13 6" fill="#ddd"/></svg>

<svg xmlns="http://www.w3.org/2000/svg" width="16" height="16"><path d="M3 3h7.172c-.09.25-.145.516-.164.79L10 4H3c-.55 0-1 .45-1 1v.191l5.5 2.75 3.469-1.734c.289.266.629.477 1.008.613L7.723 8.945a.48.48 0 01-.36.035l-.086-.035L2 6.31V11c0 .55.45 1 1 1h9c.55 0 1-.45 1-1V7c.352 0 .688-.059 1-.172V11c0 1.105-.895 2-2 2H3c-1.105 0-2-.895-2-2V5c0-1.105.895-2 2-2zm10 3a2.07 2.07 0 01-.223-.012l-.172-.027-.066-.016-.094-.023a1.823 1.823 0 01-.316-.121l-.168-.09a1.996 1.996 0 01-.953-1.547L11 4l.004-.09.008-.12.02-.153.042-.184.051-.156.063-.149L11.27 3a1.999 1.999 0 112.867 2.645l-.145.093-.144.074-.188.079-.058.02-.157.038-.113.024-.16.02A2.419 2.419 0 0113 6zm0 0" fill="#ddd"/></svg>
